src/ribbon-b.svg

<?xml version="1.0" encoding="utf-8"?>
<!-- Generated by IcoMoon.io -->
<!DOCTYPE svg PUBLIC "-//W3C//DTD SVG 1.1//EN" "http://www.w3.org/Graphics/SVG/1.1/DTD/svg11.dtd">
<svg version="1.1" xmlns="http://www.w3.org/2000/svg" xmlns:xlink="http://www.w3.org/1999/xlink" width="512" height="512" viewBox="0 0 512 512">
<path fill="#000000" d="M256 72c-48.523 0-88 39.477-88 88s39.477 88 88 88 88-39.477 88-88-39.477-88-88-88z"></path>
<path fill="#000000" d="M256 32c-70.692 0-128 57.308-128 128s57.308 128 128 128 128-57.308 128-128-57.308-128-128-128zM256 256c-53.020 0-96-42.98-96-96s42.98-96 96-96 96 42.98 96 96-42.98 96-96 96z"></path>
<path fill="#000000" d="M147.092 254.21l-83.092 145.79h96l48 80 81.641-179.961c-10.793 2.584-22.056 3.961-33.641 3.961-43.505 0-82.503-19.293-108.908-49.79z"></path>
<path fill="#000000" d="M364.908 254.211c-15.077 17.412-34.26 31.172-56.043 39.774l-44.752 98.092 39.887 87.923 48-80h96l-83.092-145.789z"></path>
</svg>

<?xml version="1.0" encoding="utf-8"?>
<!-- Generator: Adobe Illustrator 16.2.1, SVG Export Plug-In . SVG Version: 6.00 Build 0)  -->
<!DOCTYPE svg PUBLIC "-//W3C//DTD SVG 1.1//EN" "http://www.w3.org/Graphics/SVG/1.1/DTD/svg11.dtd">
<svg version="1.1" id="Layer_1" xmlns="http://www.w3.org/2000/svg" xmlns:xlink="http://www.w3.org/1999/xlink" x="0px" y="0px"
	 width="512px" height="512px" viewBox="0 0 512 512" enable-background="new 0 0 512 512" xml:space="preserve">
<g>
	<g>
		<path d="M256,72c-48.523,0-88,39.477-88,88s39.477,88,88,88s88-39.477,88-88S304.523,72,256,72z"/>
		<path d="M256,32c-70.692,0-128,57.308-128,128s57.308,128,128,128s128-57.308,128-128S326.692,32,256,32z M256,256
			c-53.02,0-96-42.98-96-96s42.98-96,96-96s96,42.98,96,96S309.02,256,256,256z"/>
	</g>
	<g>
		<path d="M147.092,254.21L64,400h96l48,80l48-105.807l33.641-74.154C278.848,302.623,267.585,304,256,304
			C212.495,304,173.497,284.707,147.092,254.21z"/>
		<path d="M364.908,254.211c-15.077,17.412-34.26,31.172-56.043,39.774l-44.752,98.092L304,480l48-80h96L364.908,254.211z"/>
	</g>
</g>
</svg>
